assets/svgs/logo.svg

<svg width="292" height="292" viewBox="0 0 292 292" fill="none" xmlns="http://www.w3.org/2000/svg">
<path d="M149.594 43.0427C163.107 38.9744 177.764 42.424 188.043 52.0923L236.851 97.9964C247.131 107.665 251.472 122.083 248.238 135.819L232.888 201.04C229.655 214.776 219.339 225.745 205.826 229.813L141.668 249.13C128.156 253.198 113.499 249.748 103.219 240.08L54.4116 194.176C44.1319 184.508 39.791 170.09 43.0241 156.353L58.3745 91.1325C61.6076 77.3959 71.9235 66.4275 85.4363 62.3591L149.594 43.0427Z" stroke="url(#paint0_linear_1_301)" stroke-width="5"/>
<path d="M108.211 49.9961C118.984 40.8806 133.801 38.2049 147.082 42.9768L210.138 65.6335C223.418 70.4054 233.144 81.9 235.652 95.7874L247.559 161.724C250.066 175.611 244.975 189.781 234.202 198.897L183.053 242.176C172.28 251.292 157.462 253.967 144.182 249.196L81.1258 226.539C67.8451 221.767 58.119 210.272 55.6113 196.385L43.7047 130.449C41.197 116.561 46.2886 102.391 57.0615 93.2755L108.211 49.9961Z" stroke="url(#paint1_linear_1_301)" stroke-width="5"/>
<path d="M84.5692 72.3692C91.3309 61.1947 103.54 54.4762 116.599 54.7447L178.895 56.0256C191.954 56.2941 203.877 63.5087 210.173 74.9518L240.212 129.543C246.509 140.986 246.223 154.919 239.461 166.093L207.203 219.403C200.442 230.578 188.232 237.296 175.174 237.028L112.877 235.747C99.8189 235.478 87.8958 228.264 81.5991 216.821L51.5601 162.23C45.2635 150.787 45.55 136.854 52.3116 125.679L84.5692 72.3692Z" stroke="url(#paint2_linear_1_301)" stroke-width="5"/>
<path d="M129.9 55.9567C140.742 49.8568 154.016 50.0045 164.72 56.3444L215.948 86.6863C226.652 93.0262 233.16 104.595 233.022 117.035L232.359 176.571C232.22 189.01 225.456 200.431 214.613 206.531L162.722 235.725C151.88 241.825 138.607 241.678 127.903 235.338L76.6748 204.996C65.9708 198.656 59.4622 187.087 59.6007 174.647L60.2635 115.111C60.402 102.672 67.1665 91.2506 78.009 85.1506L129.9 55.9567Z" stroke="url(#paint3_linear_1_301)" stroke-width="5"/>
<circle cx="133.858" cy="126.25" r="4.25" fill="#E0E0E0"/>
<circle cx="146.001" cy="126.25" r="4.25" fill="#E0E0E0"/>
<circle cx="158.144" cy="126.25" r="4.25" fill="#E0E0E0"/>
<path d="M182.722 177.637C180.804 186.144 175.992 193.721 169.108 199.074C162.224 204.426 153.695 207.223 144.978 206.986C136.261 206.749 127.896 203.493 121.314 197.774C114.731 192.055 110.337 184.228 108.884 175.629L122.266 173.368C123.195 178.867 126.004 183.872 130.214 187.529C134.423 191.186 139.772 193.269 145.347 193.42C150.921 193.572 156.375 191.783 160.777 188.36C165.18 184.937 168.257 180.092 169.483 174.652L182.722 177.637Z" fill="#E0E0E0"/>
<path d="M183.644 126.25C183.644 147.04 166.791 163.893 146.001 163.893C125.212 163.893 108.358 147.04 108.358 126.25C108.358 105.46 125.212 88.6071 146.001 88.6071C166.791 88.6071 183.644 105.46 183.644 126.25ZM121.929 126.25C121.929 139.545 132.707 150.322 146.001 150.322C159.296 150.322 170.073 139.545 170.073 126.25C170.073 112.955 159.296 102.178 146.001 102.178C132.707 102.178 121.929 112.955 121.929 126.25Z" fill="#E0E0E0"/>
<path d="M183.34 88L143.573 88.6071L169.983 100.143L183.34 88Z" fill="#E0E0E0"/>
<defs>
<linearGradient id="paint0_linear_1_301" x1="172.093" y1="33.6582" x2="119.17" y2="258.514" gradientUnits="userSpaceOnUse">
<stop offset="0.186" stop-color="#FF4B57"/>
<stop offset="1" stop-color="#00E7FF"/>
</linearGradient>
<linearGradient id="paint1_linear_1_301" x1="110.89" y1="-18.198" x2="195.667" y2="376.729" gradientUnits="userSpaceOnUse">
<stop stop-color="#2808EB"/>
<stop offset="0.631" stop-color="#FF0090"/>
</linearGradient>
<linearGradient id="paint2_linear_1_301" x1="107.955" y1="51.0153" x2="221.427" y2="319.657" gradientUnits="userSpaceOnUse">
<stop stop-color="#00D6F4"/>
<stop offset="1" stop-color="#0AF65F"/>
</linearGradient>
<linearGradient id="paint3_linear_1_301" x1="159.337" y1="49.0838" x2="127.497" y2="325.916" gradientUnits="userSpaceOnUse">
<stop stop-color="#F237EF" stop-opacity="0.5"/>
<stop offset="1" stop-color="#00FFED" stop-opacity="0.5"/>
</linearGradient>
</defs>
</svg>

<svg width="292" height="292" viewBox="0 0 292 292" fill="none" xmlns="http://www.w3.org/2000/svg">
	<path
		d="M84.57 72.37a36.558 36.558 0 0132.029-17.625l62.296 1.28a36.557 36.557 0 0131.278 18.927l30.039 54.591a36.555 36.555 0 01-.751 36.55l-32.258 53.31a36.558 36.558 0 01-32.029 17.625l-62.297-1.281a36.56 36.56 0 01-31.278-18.926L51.56 162.23a36.56 36.56 0 01.752-36.551l32.257-53.31z"
		stroke="url(#prefix__paint2_linear_1_301)" stroke-width="5" fill="#030712" />
	<path
		d="M149.594 43.043a39.499 39.499 0 0138.449 9.05l48.808 45.903a39.497 39.497 0 0111.387 37.823l-15.35 65.221a39.5 39.5 0 01-27.062 28.773l-64.158 19.317a39.502 39.502 0 01-38.449-9.05l-48.807-45.904a39.5 39.5 0 01-11.388-37.823l15.35-65.22a39.5 39.5 0 0127.062-28.774l64.158-19.316z"
		stroke="url(#prefix__paint0_linear_1_301)" stroke-width="5" />
	<path
		d="M108.211 49.996a39.5 39.5 0 0138.871-7.02l63.056 22.657a39.501 39.501 0 0125.514 30.154l11.907 65.937a39.502 39.502 0 01-13.357 37.173l-51.149 43.279a39.5 39.5 0 01-38.871 7.02l-63.056-22.657a39.5 39.5 0 01-25.515-30.154l-11.906-65.936a39.5 39.5 0 0113.357-37.174l51.149-43.279z"
		stroke="url(#prefix__paint1_linear_1_301)" stroke-width="5" />
	<path
		d="M129.9 55.957a34.823 34.823 0 0134.82.387l51.228 30.342a34.823 34.823 0 0117.074 30.349l-.663 59.536a34.822 34.822 0 01-17.746 29.96l-51.891 29.194a34.82 34.82 0 01-34.819-.387l-51.228-30.342A34.823 34.823 0 0159.6 174.647l.663-59.536a34.822 34.822 0 0117.745-29.96L129.9 55.957z"
		stroke="url(#prefix__paint3_linear_1_301)" stroke-width="5" />
	<g fill="#E0E0E0">
		<circle cx="133.858" cy="126.25" r="4.25" />
		<circle cx="146.001" cy="126.25" r="4.25" />
		<circle cx="158.144" cy="126.25" r="4.25" />
		<path
			d="M182.722 177.637a37.643 37.643 0 01-73.838-2.008l13.382-2.261a24.067 24.067 0 0023.081 20.052 24.068 24.068 0 0024.136-18.768l13.239 2.985zM183.644 126.25c0 20.79-16.853 37.643-37.643 37.643-20.789 0-37.643-16.853-37.643-37.643s16.854-37.643 37.643-37.643c20.79 0 37.643 16.853 37.643 37.643zm-61.715 0c0 13.295 10.778 24.072 24.072 24.072 13.295 0 24.072-10.777 24.072-24.072s-10.777-24.072-24.072-24.072c-13.294 0-24.072 10.777-24.072 24.072z" />
		<path d="M183.34 88l-39.767.607 26.41 11.536L183.34 88z" />
	</g>
	<defs id="prefix__defs15">
		<linearGradient id="prefix__paint0_linear_1_301" x1="172.093" y1="33.658" x2="119.17" y2="258.514"
			gradientUnits="userSpaceOnUse">
			<stop offset=".186" stop-color="#FF4B57" id="prefix__stop8" />
			<stop offset="1" stop-color="#00E7FF" id="prefix__stop9" />
		</linearGradient>
		<linearGradient id="prefix__paint1_linear_1_301" x1="110.89" y1="-18.198" x2="195.667" y2="376.729"
			gradientUnits="userSpaceOnUse">
			<stop stop-color="#2808EB" id="prefix__stop10" />
			<stop offset=".631" stop-color="#FF0090" id="prefix__stop11" />
		</linearGradient>
		<linearGradient id="prefix__paint2_linear_1_301" x1="107.955" y1="51.015" x2="221.427" y2="319.657"
			gradientUnits="userSpaceOnUse">
			<stop stop-color="#00D6F4" id="prefix__stop12" />
			<stop offset="1" stop-color="#0AF65F" id="prefix__stop13" />
		</linearGradient>
		<linearGradient id="prefix__paint3_linear_1_301" x1="159.337" y1="49.084" x2="127.497" y2="325.916"
			gradientUnits="userSpaceOnUse">
			<stop stop-color="#F237EF" stop-opacity=".5" id="prefix__stop14" />
			<stop offset="1" stop-color="#00FFED" stop-opacity=".5" id="prefix__stop15" />
		</linearGradient>
	</defs>
</svg>
